src/shared/ui/icons/TrashIcon.svg

<svg xmlns="http://www.w3.org/2000/svg" viewBox="0 0 24 24">
    <path d="M10 18a1 1 0 0 0 1-1v-6a1 1 0 0 0-2 0v6a1 1 0 0 0 1 1ZM20 6h-4V5a3 3 0 0 0-3-3h-2a3 3 0 0 0-3 3v1H4a1 1 0 0 0 0 2h1v11a3 3 0 0 0 3 3h8a3 3 0 0 0 3-3V8h1a1 1 0 0 0 0-2ZM10 5a1 1 0 0 1 1-1h2a1 1 0 0 1 1 1v1h-4Zm7 14a1 1 0 0 1-1 1H8a1 1 0 0 1-1-1V8h10Zm-3-1a1 1 0 0 0 1-1v-6a1 1 0 0 0-2 0v6a1 1 0 0 0 1 1Z"/>
</svg>

<svg
      
      xmlns="http://www.w3.org/2000/svg"
      viewBox="0 0 24 24"
    >
      <path d="M10,18a1,1,0,0,0,1-1V11a1,1,0,0,0-2,0v6A1,1,0,0,0,10,18ZM20,6H16V5a3,3,0,0,0-3-3H11A3,3,0,0,0,8,5V6H4A1,1,0,0,0,4,8H5V19a3,3,0,0,0,3,3h8a3,3,0,0,0,3-3V8h1a1,1,0,0,0,0-2ZM10,5a1,1,0,0,1,1-1h2a1,1,0,0,1,1,1V6H10Zm7,14a1,1,0,0,1-1,1H8a1,1,0,0,1-1-1V8H17Zm-3-1a1,1,0,0,0,1-1V11a1,1,0,0,0-2,0v6A1,1,0,0,0,14,18Z" />
    </svg>
